cy/network-switch-solid-badged.svg

<svg viewBox="0 0 36 36" xmlns="http://www.w3.org/2000/svg" height="1em" width="1em">
  <path d="M32.26 13.15A7.49 7.49 0 0 1 22.57 7H7.13a2 2 0 0 0-1.91 1.41L2.09 18.48a2 2 0 0 0-.09.59V27a2 2 0 0 0 2 2h28a2 2 0 0 0 2-2v-7.94a2 2 0 0 0-.09-.59ZM8.92 25h-1.8v-3h1.8Zm5 0h-1.8v-3h1.8Zm5 0h-1.8v-3h1.8Zm5 0H22.1v-3h1.8Zm5 0H27.1v-3h1.8ZM31 19.4H5V18h26Z" class="clr-i-solid--badged clr-i-solid-path-1--badged"/>
  <circle cx="30" cy="6" r="5" class="clr-i-solid--badged clr-i-solid-path-2--badged clr-i-badge"/>
  <path fill="none" d="M0 0h36v36H0z"/>
</svg>

<svg version="1.1" viewBox="0 0 36 36" preserveAspectRatio="xMidYMid meet" xmlns="http://www.w3.org/2000/svg" height="1em" width="1em">
  <path d="M32.26,13.15A7.49,7.49,0,0,1,22.57,7H7.13A2,2,0,0,0,5.22,8.41L2.09,18.48a2,2,0,0,0-.09.59V27a2,2,0,0,0,2,2H32a2,2,0,0,0,2-2V19.06a2,2,0,0,0-.09-.59ZM8.92,25H7.12V22h1.8Zm5,0h-1.8V22h1.8Zm5,0h-1.8V22h1.8Zm5,0H22.1V22h1.8Zm5,0H27.1V22h1.8ZM31,19.4H5V18H31Z" class="clr-i-solid--badged clr-i-solid-path-1--badged"/>
  <circle cx="30" cy="6" r="5" class="clr-i-solid--badged clr-i-solid-path-2--badged clr-i-badge"/>
  <rect x="0" y="0" width="36" height="36" fill-opacity="0"/>
</svg>
